src/svg/16/search_16.svg

<?xml version="1.0" encoding="UTF-8"?>
<svg width="16px" height="16px" viewBox="0 0 16 16" version="1.1" xmlns="http://www.w3.org/2000/svg" xmlns:xlink="http://www.w3.org/1999/xlink">
    <!-- Generator: Sketch 50.2 (55047) - http://www.bohemiancoding.com/sketch -->
    <title>search_16</title>
    <desc>Created with Sketch.</desc>
    <defs></defs>
    <g id="Page-2" stroke="none" stroke-width="1" fill="none" fill-rule="evenodd">
        <g id="search_16">
            <rect id="Bounds" x="0" y="0" width="16" height="16"></rect>
            <path d="M14.7430947,13.5740557 L10.9100947,9.73955572 C11.5971654,8.80245935 11.9652265,7.66953223 11.9600947,6.50755572 C11.946985,3.47441147 9.49371664,1.01757444 6.46059465,1.00005572 C5.00907481,0.993488427 3.61521603,1.56771229 2.58953064,2.59480646 C1.56384524,3.62190064 0.991535071,5.01654626 1.00009465,6.46805572 C1.01320436,9.50147611 3.46669652,11.958537 6.50009465,11.9760557 C7.66680484,11.9811124 8.80387114,11.6087552 9.74159465,10.9145557 L9.74559465,10.9115557 L13.5750947,14.7430557 C13.7821435,14.9602692 14.0906604,15.0481921 14.3811096,14.9727584 C14.6715587,14.8973248 14.898302,14.6703873 14.9734871,14.3798737 C15.0486722,14.0893602 14.9604853,13.7809186 14.7430947,13.5740557 L14.7430947,13.5740557 Z M6.49609465,10.8780557 C4.06950871,10.8640967 2.1067469,8.89865842 2.09609465,6.47205572 C2.08954524,5.31099854 2.54743104,4.19550612 3.36782487,3.37389147 C4.1882187,2.55227681 5.30302902,2.09273279 6.46409465,2.09755572 C8.89068059,2.1115147 10.8534424,4.07695301 10.8640947,6.50355572 C10.8706441,7.6646129 10.4127583,8.78010532 9.59236443,9.60171997 C8.7719706,10.4233346 7.65716028,10.8828786 6.49609465,10.8780557 Z" id="Mask" fill="currentColor"></path>
        </g>
    </g>
</svg>

<svg xmlns="http://www.w3.org/2000/svg" width="16" height="16" fill="none" viewBox="0 0 16 16"><path fill="currentColor" d="m14.7431 13.5741-3.833-3.8345a5.4255 5.4255 0 0 0 1.05-3.232C11.947 3.4744 9.4937 1.0176 6.4606 1A5.436 5.436 0 0 0 1 6.468c.0131 3.0334 2.4666 5.4904 5.5 5.508a5.4089 5.4089 0 0 0 3.2415-1.0615l.004-.003 3.8295 3.8315a.8266.8266 0 1 0 1.168-1.169Zm-8.247-2.696c-2.4266-.014-4.3894-1.9794-4.4-4.406a4.35 4.35 0 0 1 4.368-4.3745c2.4266.014 4.3893 1.9794 4.4 4.406a4.35 4.35 0 0 1-4.368 4.3745Z"/></svg>
